X: 18219
T: Humours Of Kiltyclogher, The
R: jig
M: 6/8
K: Adorian
|:B|AGE G2E|c2E G2E|DED D2E|GED D2B|
AGE G2E|c2E DEG|A3 BGE|A3 A2:|
|:B|c2B c2d|ecA ABc|BAG GAB|dBG GAB|
c2B c2d|ecA ABc|BAG GEG|A3 A2:|

